/* XPM */
static char *_e704b6b2d0e4a6af7c336d130a15f67djQQJN65EuxeSxa5[] = {
/* columns rows colors chars-per-pixel */
"64 64 10 1 ",
"  c None",
". c #FFD94E",
"X c #FFF7CB",
"o c #E4C141",
"O c #FFF3AD",
"+ c #CBA518",
"@ c #FFF8CE",
"# c #F3CE48",
"$ c #805B00",
"% c black",
/* pixels */
"                        ....XXXXXXXXXXXX                        ",
"                        ....XXXXXXXXXXXX                        ",
"                        ....XXXXXXXXXXXX                        ",
"                        ....XXXXXXXXXXXX                        ",
"                    ....................XXXX                    ",
"                    ....................XXXX                    ",
"                    ....................XXXX                    ",
"                    ....................XXXX                    ",
"                    ........oooooooo....OOOOOOOO                ",
"                    ........oooooooo....OOOOOOOO                ",
"                    ........oooooooo....OOOOOOOO                ",
"                    ........oooooooo....OOOOOOOO                ",
"                ................++++........OOOO                ",
"                ................++++........OOOO                ",
"                ................++++........OOOO                ",
"                ................++++........OOOO                ",
"                ....................++++....@@@@                ",
"                ....................++++....@@@@                ",
"                ....................++++....@@@@                ",
"                ....................++++....@@@@                ",
"                ....................++++....@@@@                ",
"                ....................++++....@@@@                ",
"                ....................++++....@@@@                ",
"                ....................++++....@@@@                ",
"                ........####........++++....@@@@                ",
"                ........####........++++....@@@@                ",
"                ........####........++++....@@@@                ",
"                ........####........++++....@@@@                ",
"                ........####........++++....@@@@                ",
"                ........####........++++....@@@@                ",
"                ........####........++++....@@@@                ",
"                ........####........++++....@@@@                ",
"                ........####........++++....OOOO                ",
"                ........####........++++....OOOO                ",
"                ........####........++++....OOOO                ",
"                ........####........++++....OOOO                ",
"                ........OOOO........oooo....OOOO                ",
"                ........OOOO........oooo....OOOO                ",
"                ........OOOO........oooo....OOOO                ",
"                ........OOOO........oooo....OOOO                ",
"                ........OOOO........oooo....++++                ",
"                ........OOOO........oooo....++++                ",
"                ........OOOO........oooo....++++                ",
"                ........OOOO........oooo....++++                ",
"                ........OOOO................++++                ",
"                ........OOOO................++++                ",
"                ........OOOO................++++                ",
"                ........OOOO................++++                ",
"                ............OOOO........++++                    ",
"                ............OOOO........++++                    ",
"                ............OOOO........++++                    ",
"                ............OOOO........++++                    ",
"                    ........########....++++                    ",
"                    ........########....++++                    ",
"                    ........########....++++                    ",
"                    ........########....++++                    ",
"                    ....................++++                    ",
"                    ....................++++                    ",
"                    ....................++++                    ",
"                    ....................++++                    ",
"                        $$$$$$$$$$$$$$$$                        ",
"                        $$$$$$$$$$$$$$$$                        ",
"                        $$$$$$$$$$$$$$$$                        ",
"                        $$$$$$$$$$$$$$$$                        "
};
