/* XPM */
static char *fd71feb335474c04aa3438595e586dffeXSUTOhk3bO1bEwk[] = {
/* columns rows colors chars-per-pixel */
"64 64 10 1 ",
"  c None",
". c #FFF7CB",
"X c #FFF3AD",
"o c #FFD94E",
"O c #CBA518",
"+ c #E4C141",
"@ c #FFF8CE",
"# c #805B00",
"$ c #F3CE48",
"% c black",
/* pixels */
"                        ............XXXX                        ",
"                        ............XXXX                        ",
"                        ............XXXX                        ",
"                        ............XXXX                        ",
"                    ....ooooooooooooooooOOOO                    ",
"                    ....ooooooooooooooooOOOO                    ",
"                    ....ooooooooooooooooOOOO                    ",
"                    ....ooooooooooooooooOOOO                    ",
"                    XXXXoooo++++ooooooooOOOO                    ",
"                    XXXXoooo++++ooooooooOOOO                    ",
"                    XXXXoooo++++ooooooooOOOO                    ",
"                    XXXXoooo++++ooooooooOOOO                    ",
"                XXXXoooooooo++++ooooooooooooOOOO                ",
"                XXXXoooooooo++++ooooooooooooOOOO                ",
"                XXXXoooooooo++++ooooooooooooOOOO                ",
"                XXXXoooooooo++++ooooooooooooOOOO                ",
"                @@@@ooooOOOOoooooooooooooooo####                ",
"                @@@@ooooOOOOoooooooooooooooo####                ",
"                @@@@ooooOOOOoooooooooooooooo####                ",
"                @@@@ooooOOOOoooooooooooooooo####                ",
"                @@@@ooooOOOOoooooooooooooooo####                ",
"                @@@@ooooOOOOoooooooooooooooo####                ",
"                @@@@ooooOOOOoooooooooooooooo####                ",
"                @@@@ooooOOOOoooooooooooooooo####                ",
"                @@@@ooooOOOOoooooooo$$$$oooo####                ",
"                @@@@ooooOOOOoooooooo$$$$oooo####                ",
"                @@@@ooooOOOOoooooooo$$$$oooo####                ",
"                @@@@ooooOOOOoooooooo$$$$oooo####                ",
"                @@@@ooooOOOOoooooooo$$$$oooo####                ",
"                @@@@ooooOOOOoooooooo$$$$oooo####                ",
"                @@@@ooooOOOOoooooooo$$$$oooo####                ",
"                @@@@ooooOOOOoooooooo$$$$oooo####                ",
"                @@@@oooo++++oooooooo$$$$oooo####                ",
"                @@@@oooo++++oooooooo$$$$oooo####                ",
"                @@@@oooo++++oooooooo$$$$oooo####                ",
"                @@@@oooo++++oooooooo$$$$oooo####                ",
"                @@@@oooo++++ooooooooXXXXoooo####                ",
"                @@@@oooo++++ooooooooXXXXoooo####                ",
"                @@@@oooo++++ooooooooXXXXoooo####                ",
"                @@@@oooo++++ooooooooXXXXoooo####                ",
"                XXXXooooooooooooooooXXXXoooo####                ",
"                XXXXooooooooooooooooXXXXoooo####                ",
"                XXXXooooooooooooooooXXXXoooo####                ",
"                XXXXooooooooooooooooXXXXoooo####                ",
"                XXXXooooooooooooooooXXXXoooo####                ",
"                XXXXooooooooooooooooXXXXoooo####                ",
"                XXXXooooooooooooooooXXXXoooo####                ",
"                XXXXooooooooooooooooXXXXoooo####                ",
"                    OOOOooooooooXXXXoooooooo####                ",
"                    OOOOooooooooXXXXoooooooo####                ",
"                    OOOOooooooooXXXXoooooooo####                ",
"                    OOOOooooooooXXXXoooooooo####                ",
"                    OOOOoooo$$$$$$$$oooo####                    ",
"                    OOOOoooo$$$$$$$$oooo####                    ",
"                    OOOOoooo$$$$$$$$oooo####                    ",
"                    OOOOoooo$$$$$$$$oooo####                    ",
"                    OOOOoooooooooooooooo####                    ",
"                    OOOOoooooooooooooooo####                    ",
"                    OOOOoooooooooooooooo####                    ",
"                    OOOOoooooooooooooooo####                    ",
"                        ################                        ",
"                        ################                        ",
"                        ################                        ",
"                        ################                        "
};
