/* XPM */
static char *e2e12f5d913b407ec8513547752b0a31LQQ5u73wk432ksK0[] = {
/* columns rows colors chars-per-pixel */
"64 64 7 1 ",
"  c None",
". c #FFF7CB",
"X c #FFD94E",
"o c #FFF3AD",
"O c #CBA518",
"+ c #805B00",
"@ c black",
/* pixels */
"                        ........XXXX                            ",
"                        ........XXXX                            ",
"                        ........XXXX                            ",
"                        ........XXXX                            ",
"                        ....XXXXXXXX                            ",
"                        ....XXXXXXXX                            ",
"                        ....XXXXXXXX                            ",
"                        ....XXXXXXXX                            ",
"                        ooooXXXXOOOO                            ",
"                        ooooXXXXOOOO                            ",
"                        ooooXXXXOOOO                            ",
"                        ooooXXXXOOOO                            ",
"                        ooooXXXXOOOO                            ",
"                        ooooXXXXOOOO                            ",
"                        ooooXXXXOOOO                            ",
"                        ooooXXXXOOOO                            ",
"                        ooooXXXXOOOO                            ",
"                        ooooXXXXOOOO                            ",
"                        ooooXXXXOOOO                            ",
"                        ooooXXXXOOOO                            ",
"                        ooooXXXXOOOO                            ",
"                        ooooXXXXOOOO                            ",
"                        ooooXXXXOOOO                            ",
"                        ooooXXXXOOOO                            ",
"                        ooooXXXXOOOO                            ",
"                        ooooXXXXOOOO                            ",
"                        ooooXXXXOOOO                            ",
"                        ooooXXXXOOOO                            ",
"                        XXXXXXXXOOOO                            ",
"                        XXXXXXXXOOOO                            ",
"                        XXXXXXXXOOOO                            ",
"                        XXXXXXXXOOOO                            ",
"                        XXXXXXXXOOOO                            ",
"                        XXXXXXXXOOOO                            ",
"                        XXXXXXXXOOOO                            ",
"                        XXXXXXXXOOOO                            ",
"                        XXXXXXXXOOOO                            ",
"                        XXXXXXXXOOOO                            ",
"                        XXXXXXXXOOOO                            ",
"                        XXXXXXXXOOOO                            ",
"                        XXXXOOOOOOOO                            ",
"                        XXXXOOOOOOOO                            ",
"                        XXXXOOOOOOOO                            ",
"                        XXXXOOOOOOOO                            ",
"                        OOOOOOOO++++                            ",
"                        OOOOOOOO++++                            ",
"                        OOOOOOOO++++                            ",
"                        OOOOOOOO++++                            ",
"                        OOOOOOOO++++                            ",
"                        OOOOOOOO++++                            ",
"                        OOOOOOOO++++                            ",
"                        OOOOOOOO++++                            ",
"                        OOOOOOOO++++                            ",
"                        OOOOOOOO++++                            ",
"                        OOOOOOOO++++                            ",
"                        OOOOOOOO++++                            ",
"                        OOOO++++++++                            ",
"                        OOOO++++++++                            ",
"                        OOOO++++++++                            ",
"                        OOOO++++++++                            ",
"                        ++++++++++++                            ",
"                        ++++++++++++                            ",
"                        ++++++++++++                            ",
"                        ++++++++++++                            "
};
