/* XPM */
static char *_702df095eac48928b13cb583bc94fdeTepjktzKGXq7cqfE[] = {
/* columns rows colors chars-per-pixel */
"64 64 10 1 ",
"  c None",
". c #F3CE48",
"X c #FFF3AD",
"o c #FFF7CB",
"O c #FFD94E",
"+ c #CBA518",
"@ c #805B00",
"# c #FFF8CE",
"$ c #E4C141",
"% c black",
/* pixels */
"                    ....XXXXooooooooooooooooXXXX                ",
"                    ....XXXXooooooooooooooooXXXX                ",
"                    ....XXXXooooooooooooooooXXXX                ",
"                    ....XXXXooooooooooooooooXXXX                ",
"                ....OOOOOOOOOOOOOOOOOOOOOOOOOOOOXXXX            ",
"                ....OOOOOOOOOOOOOOOOOOOOOOOOOOOOXXXX            ",
"                ....OOOOOOOOOOOOOOOOOOOOOOOOOOOOXXXX            ",
"                ....OOOOOOOOOOOOOOOOOOOOOOOOOOOOXXXX            ",
"            ....OOOOOOOO++++++++++++++++++++OOOOOOOOXXXX        ",
"            ....OOOOOOOO++++++++++++++++++++OOOOOOOOXXXX        ",
"            ....OOOOOOOO++++++++++++++++++++OOOOOOOOXXXX        ",
"            ....OOOOOOOO++++++++++++++++++++OOOOOOOOXXXX        ",
"        @@@@OOOO++++++++OOOOOOOOOOOOOOOOOOOO++++OOOOOOOOXXXX    ",
"        @@@@OOOO++++++++OOOOOOOOOOOOOOOOOOOO++++OOOOOOOOXXXX    ",
"        @@@@OOOO++++++++OOOOOOOOOOOOOOOOOOOO++++OOOOOOOOXXXX    ",
"        @@@@OOOO++++++++OOOOOOOOOOOOOOOOOOOO++++OOOOOOOOXXXX    ",
"        @@@@OOOOOOOOOOOOOOOOOOOOOOOOOOOOOOOOOOOO++++OOOOXXXX    ",
"        @@@@OOOOOOOOOOOOOOOOOOOOOOOOOOOOOOOOOOOO++++OOOOXXXX    ",
"        @@@@OOOOOOOOOOOOOOOOOOOOOOOOOOOOOOOOOOOO++++OOOOXXXX    ",
"        @@@@OOOOOOOOOOOOOOOOOOOOOOOOOOOOOOOOOOOO++++OOOOXXXX    ",
"    @@@@OOOOOOOO....OOOOOOOOOOOOOOOOOOOOOOOOOOOO++++OOOOOOOO####",
"    @@@@OOOOOOOO....OOOOOOOOOOOOOOOOOOOOOOOOOOOO++++OOOOOOOO####",
"    @@@@OOOOOOOO....OOOOOOOOOOOOOOOOOOOOOOOOOOOO++++OOOOOOOO####",
"    @@@@OOOOOOOO....OOOOOOOOOOOOOOOOOOOOOOOOOOOO++++OOOOOOOO####",
"    @@@@OOOO....OOOOOOOOOOOOOOOOOOOOOOOOOOOOOOOOOOOO++++OOOO####",
"    @@@@OOOO....OOOOOOOOOOOOOOOOOOOOOOOOOOOOOOOOOOOO++++OOOO####",
"    @@@@OOOO....OOOOOOOOOOOOOOOOOOOOOOOOOOOOOOOOOOOO++++OOOO####",
"    @@@@OOOO....OOOOOOOOOOOOOOOOOOOOOOOOOOOOOOOOOOOO++++OOOO####",
"    @@@@OOOO....OOOOOOOOOOOOOOOOOOOOOOOOOOOOOOOOOOOO++++OOOO####",
"    @@@@OOOO....OOOOOOOOOOOOOOOOOOOOOOOOOOOOOOOOOOOO++++OOOO####",
"    @@@@OOOO....OOOOOOOOOOOOOOOOOOOOOOOOOOOOOOOOOOOO++++OOOO####",
"    @@@@OOOO....OOOOOOOOOOOOOOOOOOOOOOOOOOOOOOOOOOOO++++OOOO####",
"    @@@@OOOOXXXXOOOOOOOOOOOOOOOOOOOOOOOOOOOOOOOOOOOO++++OOOO####",
"    @@@@OOOOXXXXOOOOOOOOOOOOOOOOOOOOOOOOOOOOOOOOOOOO++++OOOO####",
"    @@@@OOOOXXXXOOOOOOOOOOOOOOOOOOOOOOOOOOOOOOOOOOOO++++OOOO####",
"    @@@@OOOOXXXXOOOOOOOOOOOOOOOOOOOOOOOOOOOOOOOOOOOO++++OOOO####",
"    @@@@OOOOXXXXOOOOOOOOOOOOOOOOOOOOOOOOOOOOOOOOOOOO++++OOOO####",
"    @@@@OOOOXXXXOOOOOOOOOOOOOOOOOOOOOOOOOOOOOOOOOOOO++++OOOO####",
"    @@@@OOOOXXXXOOOOOOOOOOOOOOOOOOOOOOOOOOOOOOOOOOOO++++OOOO####",
"    @@@@OOOOXXXXOOOOOOOOOOOOOOOOOOOOOOOOOOOOOOOOOOOO++++OOOO####",
"    @@@@OOOOOOOOXXXXOOOOOOOOOOOOOOOOOOOOOOOOOOOO++++OOOOOOOOXXXX",
"    @@@@OOOOOOOOXXXXOOOOOOOOOOOOOOOOOOOOOOOOOOOO++++OOOOOOOOXXXX",
"    @@@@OOOOOOOOXXXXOOOOOOOOOOOOOOOOOOOOOOOOOOOO++++OOOOOOOOXXXX",
"    @@@@OOOOOOOOXXXXOOOOOOOOOOOOOOOOOOOOOOOOOOOO++++OOOOOOOOXXXX",
"        @@@@OOOOXXXXOOOOOOOOOOOOOOOOOOOOOOOOOOOO++++OOOO@@@@    ",
"        @@@@OOOOXXXXOOOOOOOOOOOOOOOOOOOOOOOOOOOO++++OOOO@@@@    ",
"        @@@@OOOOXXXXOOOOOOOOOOOOOOOOOOOOOOOOOOOO++++OOOO@@@@    ",
"        @@@@OOOOXXXXOOOOOOOOOOOOOOOOOOOOOOOOOOOO++++OOOO@@@@    ",
"        @@@@OOOOOOOO....OOOOOOOOOOOOOOOOOOOO$$$$OOOOOOOO@@@@    ",
"        @@@@OOOOOOOO....OOOOOOOOOOOOOOOOOOOO$$$$OOOOOOOO@@@@    ",
"        @@@@OOOOOOOO....OOOOOOOOOOOOOOOOOOOO$$$$OOOOOOOO@@@@    ",
"        @@@@OOOOOOOO....OOOOOOOOOOOOOOOOOOOO$$$$OOOOOOOO@@@@    ",
"            @@@@OOOOOOOO........OOOO$$$$$$$$OOOOOOOO@@@@        ",
"            @@@@OOOOOOOO........OOOO$$$$$$$$OOOOOOOO@@@@        ",
"            @@@@OOOOOOOO........OOOO$$$$$$$$OOOOOOOO@@@@        ",
"            @@@@OOOOOOOO........OOOO$$$$$$$$OOOOOOOO@@@@        ",
"                @@@@OOOOOOOOOOOOOOOOOOOOOOOOOOOO@@@@            ",
"                @@@@OOOOOOOOOOOOOOOOOOOOOOOOOOOO@@@@            ",
"                @@@@OOOOOOOOOOOOOOOOOOOOOOOOOOOO@@@@            ",
"                @@@@OOOOOOOOOOOOOOOOOOOOOOOOOOOO@@@@            ",
"                    @@@@@@@@@@@@@@@@@@@@@@@@@@@@                ",
"                    @@@@@@@@@@@@@@@@@@@@@@@@@@@@                ",
"                    @@@@@@@@@@@@@@@@@@@@@@@@@@@@                ",
"                    @@@@@@@@@@@@@@@@@@@@@@@@@@@@                "
};
