/* XPM */
static char *_6c4dc11691547639f2ef5cea577c4a55ac5nybdTPLdIXPg[] = {
/* columns rows colors chars-per-pixel */
"64 64 10 1 ",
"  c None",
". c #FFF7CB",
"X c #CBA518",
"o c #FFD94E",
"O c #FFF3AD",
"+ c #E4C141",
"@ c #805B00",
"# c #FFF8CE",
"$ c #F3CE48",
"% c black",
/* pixels */
"                        ................                        ",
"                        ................                        ",
"                        ................                        ",
"                        ................                        ",
"                    XXXXooooooooooooooooOOOO                    ",
"                    XXXXooooooooooooooooOOOO                    ",
"                    XXXXooooooooooooooooOOOO                    ",
"                    XXXXooooooooooooooooOOOO                    ",
"                    XXXXoooooooo++++ooooOOOO                    ",
"                    XXXXoooooooo++++ooooOOOO                    ",
"                    XXXXoooooooo++++ooooOOOO                    ",
"                    XXXXoooooooo++++ooooOOOO                    ",
"                @@@@oooooooooooo++++ooooooooOOOO                ",
"                @@@@oooooooooooo++++ooooooooOOOO                ",
"                @@@@oooooooooooo++++ooooooooOOOO                ",
"                @@@@oooooooooooo++++ooooooooOOOO                ",
"                @@@@ooooooooooooooooXXXXooooOOOO                ",
"                @@@@ooooooooooooooooXXXXooooOOOO                ",
"                @@@@ooooooooooooooooXXXXooooOOOO                ",
"                @@@@ooooooooooooooooXXXXooooOOOO                ",
"                @@@@ooooooooooooooooXXXXoooo####                ",
"                @@@@ooooooooooooooooXXXXoooo####                ",
"                @@@@ooooooooooooooooXXXXoooo####                ",
"                @@@@ooooooooooooooooXXXXoooo####                ",
"                @@@@oooo$$$$ooooooooXXXXoooo####                ",
"                @@@@oooo$$$$ooooooooXXXXoooo####                ",
"                @@@@oooo$$$$ooooooooXXXXoooo####                ",
"                @@@@oooo$$$$ooooooooXXXXoooo####                ",
"                @@@@oooo$$$$ooooooooXXXXoooo####                ",
"                @@@@oooo$$$$ooooooooXXXXoooo####                ",
"                @@@@oooo$$$$ooooooooXXXXoooo####                ",
"                @@@@oooo$$$$ooooooooXXXXoooo####                ",
"                @@@@oooo$$$$oooooooo++++ooooOOOO                ",
"                @@@@oooo$$$$oooooooo++++ooooOOOO                ",
"                @@@@oooo$$$$oooooooo++++ooooOOOO                ",
"                @@@@oooo$$$$oooooooo++++ooooOOOO                ",
"                @@@@ooooOOOOoooooooo++++ooooOOOO                ",
"                @@@@ooooOOOOoooooooo++++ooooOOOO                ",
"                @@@@ooooOOOOoooooooo++++ooooOOOO                ",
"                @@@@ooooOOOOoooooooo++++ooooOOOO                ",
"                @@@@ooooOOOOooooooooooooooooOOOO                ",
"                @@@@ooooOOOOooooooooooooooooOOOO                ",
"                @@@@ooooOOOOooooooooooooooooOOOO                ",
"                @@@@ooooOOOOooooooooooooooooOOOO                ",
"                @@@@ooooOOOOooooooooooooooooOOOO                ",
"                @@@@ooooOOOOooooooooooooooooOOOO                ",
"                @@@@ooooOOOOooooooooooooooooOOOO                ",
"                @@@@ooooOOOOooooooooooooooooOOOO                ",
"                @@@@ooooooooOOOOooooooooXXXX                    ",
"                @@@@ooooooooOOOOooooooooXXXX                    ",
"                @@@@ooooooooOOOOooooooooXXXX                    ",
"                @@@@ooooooooOOOOooooooooXXXX                    ",
"                    @@@@oooo$$$$$$$$ooooXXXX                    ",
"                    @@@@oooo$$$$$$$$ooooXXXX                    ",
"                    @@@@oooo$$$$$$$$ooooXXXX                    ",
"                    @@@@oooo$$$$$$$$ooooXXXX                    ",
"                    @@@@ooooooooooooooooXXXX                    ",
"                    @@@@ooooooooooooooooXXXX                    ",
"                    @@@@ooooooooooooooooXXXX                    ",
"                    @@@@ooooooooooooooooXXXX                    ",
"                        @@@@@@@@@@@@@@@@                        ",
"                        @@@@@@@@@@@@@@@@                        ",
"                        @@@@@@@@@@@@@@@@                        ",
"                        @@@@@@@@@@@@@@@@                        "
};
