/* XPM */
static char *d3c0d9de51e04283d7a1dc514e046aafFUiRZHAYPd5P7LnC[] = {
/* columns rows colors chars-per-pixel */
"64 64 10 1 ",
"  c None",
". c #FFF7CB",
"X c #FFD94E",
"o c #FFF3AD",
"O c #E4C141",
"+ c #CBA518",
"@ c #FFF8CE",
"# c #F3CE48",
"$ c #805B00",
"% c black",
/* pixels */
"                        ............XXXX                        ",
"                        ............XXXX                        ",
"                        ............XXXX                        ",
"                        ............XXXX                        ",
"                    ....XXXXXXXXXXXXXXXXXXXX                    ",
"                    ....XXXXXXXXXXXXXXXXXXXX                    ",
"                    ....XXXXXXXXXXXXXXXXXXXX                    ",
"                    ....XXXXXXXXXXXXXXXXXXXX                    ",
"                ooooooooXXXXOOOOOOOOXXXXXXXX                    ",
"                ooooooooXXXXOOOOOOOOXXXXXXXX                    ",
"                ooooooooXXXXOOOOOOOOXXXXXXXX                    ",
"                ooooooooXXXXOOOOOOOOXXXXXXXX                    ",
"                ooooXXXXXXXX++++XXXXXXXXXXXXXXXX                ",
"                ooooXXXXXXXX++++XXXXXXXXXXXXXXXX                ",
"                ooooXXXXXXXX++++XXXXXXXXXXXXXXXX                ",
"                ooooXXXXXXXX++++XXXXXXXXXXXXXXXX                ",
"                @@@@XXXX++++XXXXXXXXXXXXXXXXXXXX                ",
"                @@@@XXXX++++XXXXXXXXXXXXXXXXXXXX                ",
"                @@@@XXXX++++XXXXXXXXXXXXXXXXXXXX                ",
"                @@@@XXXX++++XXXXXXXXXXXXXXXXXXXX                ",
"                @@@@XXXX++++XXXXXXXXXXXXXXXXXXXX                ",
"                @@@@XXXX++++XXXXXXXXXXXXXXXXXXXX                ",
"                @@@@XXXX++++XXXXXXXXXXXXXXXXXXXX                ",
"                @@@@XXXX++++XXXXXXXXXXXXXXXXXXXX                ",
"                @@@@XXXX++++XXXXXXXX####XXXXXXXX                ",
"                @@@@XXXX++++XXXXXXXX####XXXXXXXX                ",
"                @@@@XXXX++++XXXXXXXX####XXXXXXXX                ",
"                @@@@XXXX++++XXXXXXXX####XXXXXXXX                ",
"                @@@@XXXX++++XXXXXXXX####XXXXXXXX                ",
"                @@@@XXXX++++XXXXXXXX####XXXXXXXX                ",
"                @@@@XXXX++++XXXXXXXX####XXXXXXXX                ",
"                @@@@XXXX++++XXXXXXXX####XXXXXXXX                ",
"                @@@@XXXX++++XXXXXXXX####XXXXXXXX                ",
"                @@@@XXXX++++XXXXXXXX####XXXXXXXX                ",
"                @@@@XXXX++++XXXXXXXX####XXXXXXXX                ",
"                @@@@XXXX++++XXXXXXXX####XXXXXXXX                ",
"                ooooXXXXOOOOXXXXXXXXooooXXXXXXXX                ",
"                ooooXXXXOOOOXXXXXXXXooooXXXXXXXX                ",
"                ooooXXXXOOOOXXXXXXXXooooXXXXXXXX                ",
"                ooooXXXXOOOOXXXXXXXXooooXXXXXXXX                ",
"                ++++XXXXOOOOXXXXXXXXooooXXXXXXXX                ",
"                ++++XXXXOOOOXXXXXXXXooooXXXXXXXX                ",
"                ++++XXXXOOOOXXXXXXXXooooXXXXXXXX                ",
"                ++++XXXXOOOOXXXXXXXXooooXXXXXXXX                ",
"                ++++XXXXXXXXXXXXXXXXooooXXXXXXXX                ",
"                ++++XXXXXXXXXXXXXXXXooooXXXXXXXX                ",
"                ++++XXXXXXXXXXXXXXXXooooXXXXXXXX                ",
"                ++++XXXXXXXXXXXXXXXXooooXXXXXXXX                ",
"                    ++++XXXXXXXXooooXXXXXXXXXXXX                ",
"                    ++++XXXXXXXXooooXXXXXXXXXXXX                ",
"                    ++++XXXXXXXXooooXXXXXXXXXXXX                ",
"                    ++++XXXXXXXXooooXXXXXXXXXXXX                ",
"                    ++++XXXX########XXXXXXXX                    ",
"                    ++++XXXX########XXXXXXXX                    ",
"                    ++++XXXX########XXXXXXXX                    ",
"                    ++++XXXX########XXXXXXXX                    ",
"                    ++++XXXXXXXXXXXXXXXXXXXX                    ",
"                    ++++XXXXXXXXXXXXXXXXXXXX                    ",
"                    ++++XXXXXXXXXXXXXXXXXXXX                    ",
"                    ++++XXXXXXXXXXXXXXXXXXXX                    ",
"                        $$$$$$$$$$$$$$$$                        ",
"                        $$$$$$$$$$$$$$$$                        ",
"                        $$$$$$$$$$$$$$$$                        ",
"                        $$$$$$$$$$$$$$$$                        "
};
