/* XPM */
static char *_baedd38979a4cf3b4f123f6a9bcb48diNOqH5m4WAW2lMGu[] = {
/* columns rows colors chars-per-pixel */
"64 64 9 1 ",
"  c None",
". c #FFF3AD",
"X c #FFD94E",
"o c #CBA518",
"O c #805B00",
"+ c #F3CE48",
"@ c #FFF8CE",
"# c #E4C141",
"$ c black",
/* pixels */
"                    ........................                    ",
"                    ........................                    ",
"                    ........................                    ",
"                    ........................                    ",
"                ....XXXXXXXXXXXXXXXXXXXXXXXXoooooooo            ",
"                ....XXXXXXXXXXXXXXXXXXXXXXXXoooooooo            ",
"                ....XXXXXXXXXXXXXXXXXXXXXXXXoooooooo            ",
"                ....XXXXXXXXXXXXXXXXXXXXXXXXoooooooo            ",
"            ....XXXXXXXXooooooooooooooooXXXXXXXXXXXXoooo        ",
"            ....XXXXXXXXooooooooooooooooXXXXXXXXXXXXoooo        ",
"            ....XXXXXXXXooooooooooooooooXXXXXXXXXXXXoooo        ",
"            ....XXXXXXXXooooooooooooooooXXXXXXXXXXXXoooo        ",
"        ....XXXXXXXXooooXXXXXXXXXXXXXXXXooooXXXXXXXXXXXXOOOO    ",
"        ....XXXXXXXXooooXXXXXXXXXXXXXXXXooooXXXXXXXXXXXXOOOO    ",
"        ....XXXXXXXXooooXXXXXXXXXXXXXXXXooooXXXXXXXXXXXXOOOO    ",
"        ....XXXXXXXXooooXXXXXXXXXXXXXXXXooooXXXXXXXXXXXXOOOO    ",
"        ....XXXXooooXXXXXXXXXXXXXXXXXXXXXXXXXXXXXXXXXXXXOOOO    ",
"        ....XXXXooooXXXXXXXXXXXXXXXXXXXXXXXXXXXXXXXXXXXXOOOO    ",
"        ....XXXXooooXXXXXXXXXXXXXXXXXXXXXXXXXXXXXXXXXXXXOOOO    ",
"        ....XXXXooooXXXXXXXXXXXXXXXXXXXXXXXXXXXXXXXXXXXXOOOO    ",
"    ....XXXXXXXXooooXXXXXXXXXXXXXXXXXXXXXXXX++++XXXXXXXXOOOOOOOO",
"    ....XXXXXXXXooooXXXXXXXXXXXXXXXXXXXXXXXX++++XXXXXXXXOOOOOOOO",
"    ....XXXXXXXXooooXXXXXXXXXXXXXXXXXXXXXXXX++++XXXXXXXXOOOOOOOO",
"    ....XXXXXXXXooooXXXXXXXXXXXXXXXXXXXXXXXX++++XXXXXXXXOOOOOOOO",
"    @@@@XXXXooooXXXXXXXXXXXXXXXXXXXXXXXXXXXXXXXX++++XXXXOOOOOOOO",
"    @@@@XXXXooooXXXXXXXXXXXXXXXXXXXXXXXXXXXXXXXX++++XXXXOOOOOOOO",
"    @@@@XXXXooooXXXXXXXXXXXXXXXXXXXXXXXXXXXXXXXX++++XXXXOOOOOOOO",
"    @@@@XXXXooooXXXXXXXXXXXXXXXXXXXXXXXXXXXXXXXX++++XXXXOOOOOOOO",
"    @@@@XXXXooooXXXXXXXXXXXXXXXXXXXXXXXXXXXXXXXX....XXXXOOOOOOOO",
"    @@@@XXXXooooXXXXXXXXXXXXXXXXXXXXXXXXXXXXXXXX....XXXXOOOOOOOO",
"    @@@@XXXXooooXXXXXXXXXXXXXXXXXXXXXXXXXXXXXXXX....XXXXOOOOOOOO",
"    @@@@XXXXooooXXXXXXXXXXXXXXXXXXXXXXXXXXXXXXXX....XXXXOOOOOOOO",
"    @@@@XXXXooooXXXXXXXXXXXXXXXXXXXXXXXXXXXXXXXX....XXXXOOOOOOOO",
"    @@@@XXXXooooXXXXXXXXXXXXXXXXXXXXXXXXXXXXXXXX....XXXXOOOOOOOO",
"    @@@@XXXXooooXXXXXXXXXXXXXXXXXXXXXXXXXXXXXXXX....XXXXOOOOOOOO",
"    @@@@XXXXooooXXXXXXXXXXXXXXXXXXXXXXXXXXXXXXXX....XXXXOOOOOOOO",
"    ....XXXX####XXXXXXXXXXXXXXXXXXXXXXXXXXXXXXXX....XXXXOOOOOOOO",
"    ....XXXX####XXXXXXXXXXXXXXXXXXXXXXXXXXXXXXXX....XXXXOOOOOOOO",
"    ....XXXX####XXXXXXXXXXXXXXXXXXXXXXXXXXXXXXXX....XXXXOOOOOOOO",
"    ....XXXX####XXXXXXXXXXXXXXXXXXXXXXXXXXXXXXXX....XXXXOOOOOOOO",
"    ....XXXXXXXX####XXXXXXXXXXXXXXXXXXXXXXXX....XXXXXXXXOOOOOOOO",
"    ....XXXXXXXX####XXXXXXXXXXXXXXXXXXXXXXXX....XXXXXXXXOOOOOOOO",
"    ....XXXXXXXX####XXXXXXXXXXXXXXXXXXXXXXXX....XXXXXXXXOOOOOOOO",
"    ....XXXXXXXX####XXXXXXXXXXXXXXXXXXXXXXXX....XXXXXXXXOOOOOOOO",
"        ....XXXX####XXXXXXXXXXXXXXXXXXXXXXXX....XXXXOOOOOOOO    ",
"        ....XXXX####XXXXXXXXXXXXXXXXXXXXXXXX....XXXXOOOOOOOO    ",
"        ....XXXX####XXXXXXXXXXXXXXXXXXXXXXXX....XXXXOOOOOOOO    ",
"        ....XXXX####XXXXXXXXXXXXXXXXXXXXXXXX....XXXXOOOOOOOO    ",
"        ....XXXXXXXX####XXXXXXXXXXXXXXXX....XXXXXXXXOOOOOOOO    ",
"        ....XXXXXXXX####XXXXXXXXXXXXXXXX....XXXXXXXXOOOOOOOO    ",
"        ....XXXXXXXX####XXXXXXXXXXXXXXXX....XXXXXXXXOOOOOOOO    ",
"        ....XXXXXXXX####XXXXXXXXXXXXXXXX....XXXXXXXXOOOOOOOO    ",
"            ooooXXXXXXXXXXXXXXXX++++++++XXXXXXXXOOOOOOOO        ",
"            ooooXXXXXXXXXXXXXXXX++++++++XXXXXXXXOOOOOOOO        ",
"            ooooXXXXXXXXXXXXXXXX++++++++XXXXXXXXOOOOOOOO        ",
"            ooooXXXXXXXXXXXXXXXX++++++++XXXXXXXXOOOOOOOO        ",
"                ooooooooXXXXXXXXXXXXXXXXXXXXOOOOOOOO            ",
"                ooooooooXXXXXXXXXXXXXXXXXXXXOOOOOOOO            ",
"                ooooooooXXXXXXXXXXXXXXXXXXXXOOOOOOOO            ",
"                ooooooooXXXXXXXXXXXXXXXXXXXXOOOOOOOO            ",
"                        OOOOOOOOOOOOOOOOOOOOOOOO                ",
"                        OOOOOOOOOOOOOOOOOOOOOOOO                ",
"                        OOOOOOOOOOOOOOOOOOOOOOOO                ",
"                        OOOOOOOOOOOOOOOOOOOOOOOO                "
};
