/* XPM */
static char *_737071256759[] = {
/* columns rows colors chars-per-pixel */
"64 64 42 1 ",
"  c #785E54",
". c #795F55",
"X c gray46",
"o c #204313",
"O c #5C4137",
"+ c #434343",
"@ c #644C44",
"# c #452E28",
"$ c #735B50",
"% c #35221F",
"& c #372C2A",
"* c #6C544B",
"= c #4B4A4A",
"- c #563D36",
"; c #543A32",
": c #4B352F",
"> c #71574E",
", c #717170",
"< c #656464",
"1 c #8E8E8E",
"2 c #686968",
"3 c gray51",
"4 c #979797",
"5 c #274A17",
"6 c #33541D",
"7 c #5F4840",
"8 c #595B57",
"9 c #787877",
"0 c #545352",
"q c #413937",
"w c #898988",
"e c #55573B",
"r c #314B24",
"t c #3E2824",
"y c #514F4F",
"u c #44592E",
"i c #7C7C7C",
"p c #4F472F",
"a c #3A4124",
"s c gray50",
"d c #788374",
"f c #848485",
/* pixels */
"++++++++++++++++++++++++++++++++++++++++++++++++++++++++++++++++",
"+8<<<<<<<<<<<2i8y<<<<<<<<<<<<X,=<<<<<<<<<<<<2iy8<<<<<<<<<<<<<X,+",
"+<9XXXXXXXXXX94<0XXXXXXXXXXXX13=,XXXXXXXXXXX340<9XXXXXXXXXXXX13+",
"+<XXXXXXXXXXX94<0XXXXXXXXXXXX13=,XXXXXXXXXXXs4y<XXXXXXXXXXXXX13+",
"+299999999999i4<0999999,,,,,,wi=2,,,,,,,999934y<999999999999913+",
"+i4444444444444<<444441urrrrr6rorq#####0444444yX444444444444443+",
"+82222222222222yy2222285ooooooopa::::::-00<22<=8222222222222228+",
"00000080+y000000000+aaoooooooaaOOOOOOOO;tt#qq000000088+y00000000",
"XXXXXX1s=,XXXXXX,22roooooooooa-------OOOOO#%:22,XXXXwf=,XXXXXXXX",
"XXXXXX1s=,XXXXXX855oooooooooo&t%%tttt;OOOOO-;tt8XXXX1f=,XXXXXXXX",
"XXXXXX1s=,XXXXX8roooooooooooe*-%%-@@@#t#OOOOO;;:yXXXwf=,XXXXXXXX",
"wwwwww4sy3wwww8roooooooooooo*.@%%@..$::;##-OOOO:p2ww4f=swwwwwwww",
"wwwwwww,=swwwdroooooooo5ooor>.@%%@. $-@@##:;;OOOpudwwX=iwwwwwwww",
"+==========++oooooooooo65or$ .@%%@. $-@ $$:t#-OOp65+===========+",
"+8,2222222,eooooooooooo65or$ .@%%@. $-@.  >*7t-Op6ooe,2222222s9+",
"+<XX9999X98roooooooooooeu5r$ .@%%@. $-@.   .*##;Opror8X99999X13+",
"+<XXXXXX,8roooooo5oorrp$u5r$ .@%%@. $-@.   .*;::;O65or8,XXXXX13+",
"+2iiiiiX<5oooooo56ooe ..e5r$ .@%%@. $-@.   .*;>-#-65oo5<Xiiii13+",
"+i44444,&65ooooo56oop   u5r$ .@%%@. $-@.   .*;>$7&65ooo5944444s+",
"+y8888=-;p65oooo56ooe  .u5r$ .@%%@. $-@.   .*;>.>@65oooo6e8888y+",
"888888qtOOpr5ooo56ooe   $pa$ .@%%@. $-@.   .*;>   e65oooor888888",
"XXXXX<-#OO;p6oor66ore   .@-$ .@%%@. $-@.   .*;>    u5oooo62XXXXX",
"XXXX,::OOOta6ooee6oe    .@-$ .@%%@. $-@.   .*;>    u5ooooor,XXXX",
"XXXX,#:OOOta6ooee6o*    .@-$ .@%%@. $-@.   .*;>    u5ooooor,XXXX",
"114s-:-O-##a6ooee6o*    .@-$ .@%%@. $-@.   .*;>    u5oooooou3111",
"999<t;OO-%#pu5oe$ua*    .@-$ .@%%@. $-@.   .*;>    u5ooooooo2999",
"+==+%;OO-%#@$65e.>;*.   .@-$ .@%%@. $-@.   .*;>    u5ooooooo=yy+",
"+<,8t;OO;t#@$6oe.>;*.   .@-$ .@%%@. $-@.   .*;>    u66oooooo<ws+",
"+<8:;OO;#@-7$6oe.>;*.   .@-$ .@%%@. $-@.   .*;>    $u6oooooor93+",
"+20tOOO:t>O7$6oe.>;*.   .@-$ .@%%@. $-@.   .*;>    .e6ooooooo,f+",
"+0=#OOO:t>O7$6oe.>;*.   .@-$ .@%%@. $-@.   .*;>     e6ooooooo82+",
"+&#OOOO:#>O7$u5e.>;*.   .@-$ .@%%@. $-@.   .*;>    .e6oooooooo5+",
"+&#OOO#:>$O7 $$$ >;*.   .@-$ .@%%@. $-@.   .*;>     e6ooooooooo+",
"<q#OOO#:  O7.    >;*.   .@-$ .@%%@. $-@.   .*;>    .e6o5555ooor<",
"Xq#OOO#:  O7...  >;*.   .@-$ .@%%@. $-@.   .*;>  ...e6o6556ooouX",
"Xq#OOO#:*@-7*@*$.>;*.   .@-$ .@%%@. $-@.   .*;>.$*@*e6o65565oo6X",
"Xq#OOO#&q%&qq%q*.>;*.    @->$ @%%@ $>-@    .*;>.*q%qr6o65ap65ou9",
"4=#OOO#:**-7***$.>;*.  <=qq++@@%%y0++qq7   .*;>.$***e6o65ap65ou4",
"2q#OOO#:  O7...  >;*. .<+=80q@@%%yy+80++   .*;>  ...@pe65ap65oa2",
"+&#OOO#:  O7.    >;*.  <yy0==*@%%y8=*y=@   .*;>    .7O$u5ap65&&+",
"+&#OOO#:  O7.    >;*.   <=%&*.@%%@.0&%O.   .*;>    .7O$u5ap65&&+",
"+&#OOO#:  O7.    >;*.   .@;* .@%%@. *;@.   .*;>    .7O$u5ap65&&+",
"+&#OOO#:  O7.    >;*.   .@-$ .@%%@. $-@.   .*;>    .7O$u5aOpp#&+",
"+&#OOO#:  O7.    >;*.   .@-$ .@%%@. $-@.   .*;>    .7O$eaqOOO#&+",
"+&#OOO#:  O7.    >;*.   .@-$ .@%%@. $-@.   .*;>    .7O  :#OOO#&+",
"+&#OOO#:$>-7$>$  >;*.   .@-$ .@%%@. $-@.   .*;>  $>$7->$:#OOO#&+",
"2q#OOO#&q&&qq&q*.>;*.   .@-$ .@%%@. $-@.   .*;>.*q&qq&&q&#OOO#q2",
"Xq#OOO##@7qO@7@>.>;*.   .@-$ .@%%@. $-@.   .*;>.>@7@Oq7@##OOO#qX",
"Xq#OOO#:  O7...  >;*.   .@-$ .@%%@. $-@.   .*;>  ...7O  :#OOO#qX",
"i-#OOO#:  O7.    >;*.   .@-$ .@%%@. $-@.   .*;>    .7O  :#OOO#-i",
"4=#OOO#:  O7.    >;*.   .@-$ .@%%@. $-@.   .*;>    .7O  :#OOO#=4",
"8##OOO#:  O7.    >;*.   .@-$ .@%%@. $-@.   .*;>    .7O  :#OOO##8",
"+&#OOO#:  O7.    >;*.   .@-$ .@%%@. $-@.   .*;>    .7O  :#OOO#&+",
"+&#OOO#:  O7.    >;*.   .@-$ .@%%@. $-@.   .*;>    .7O  :#OOO#&+",
"+&#OOO#:  O7.    >;*.   .@-$ .@%%@. $-@.   .*;>    .7O  :#OOO#&+",
"+&#OOO#:  O7     >;*     @-$ .@%%@. $-@     *;>     7O  :#OOO#&+",
"+&#OOO#:  O7.    >;*.   .@-$ .@%%@. $-@.   .*;>    .7O  :#OOO#&+",
"+&#OOO#:  O7.    >;*.   .@-$ .@%%@. $-@.   .*;>    .7O  :#OOO#&+",
"+&#OOO#:  O7.    >;*.   .@-$ .@%%@. $-@.   .*;>    .7O  :#OOO#&+",
"+&#OOO#:  O7     >;*     @-$ .@%%@. $-@     *;>     7O  :#OOO#&+",
"+&#OOO#:  O7     >;*     @-$ .@%%@. $-@     *;>     7O  :#OOO#&+",
"+&t###tt::t#::::::t::::::#t:::#%%#:::t#::::::t::::::#t::tt###t&+",
"+q&&&&&&&&&&&&&&&&&&&&&&&&&&&&&&&&&&&&&&&&&&&&&&&&&&&&&&&&&&&&&+",
"======yy+============y0+=======y=====0=+============yy+=======y="
};
